assets/icons/favicon.svg

<?xml version="1.0" encoding="utf-8"?><!-- Uploaded to: SVG Repo, www.svgrepo.com, Generator: SVG Repo Mixer Tools -->
<svg width="800px" height="800px" viewBox="0 0 32 32" fill="none" xmlns="http://www.w3.org/2000/svg">
<path d="M23.3 8.40007L21.82 6.40008C21.7248 6.27314 21.6009 6.17066 21.4583 6.10111C21.3157 6.03156 21.1586 5.99693 21 6.00008H11.2C11.0556 6.00007 10.9128 6.03135 10.7816 6.09177C10.6504 6.15219 10.5339 6.24031 10.44 6.35007L8.72 8.35008C8.57229 8.53401 8.49437 8.76424 8.5 9.00008V16.2901C8.50264 18.0317 9.19568 19.7013 10.4272 20.9328C11.6588 22.1644 13.3283 22.8574 15.07 22.8601H16.93C18.6717 22.8574 20.3412 22.1644 21.5728 20.9328C22.8043 19.7013 23.4974 18.0317 23.5 16.2901V9.00008C23.5 8.7837 23.4298 8.57317 23.3 8.40007Z" fill="#FFCC80"/>
<path d="M29.78 28.38L25.78 23.38C25.664 23.2321 25.5087 23.1198 25.3318 23.0562C25.1549 22.9925 24.9637 22.98 24.78 23.02L16 25L7.22 23C7.03633 22.96 6.84509 22.9725 6.66822 23.0362C6.49134 23.0998 6.336 23.2121 6.22 23.36L2.22 28.36C2.10393 28.5064 2.03117 28.6823 2.00996 28.8679C1.98875 29.0534 2.01994 29.2413 2.1 29.41C2.17816 29.5839 2.30441 29.7319 2.46387 29.8364C2.62333 29.9409 2.80935 29.9977 3 30H29C29.1885 29.9995 29.373 29.9457 29.5322 29.8448C29.6915 29.744 29.819 29.6002 29.9 29.43C29.9801 29.2613 30.0112 29.0734 29.99 28.8879C29.9688 28.7023 29.8961 28.5264 29.78 28.38Z" fill="#01579B"/>
<path d="M29.29 6.00003L16.29 2.00003C16.0999 1.95002 15.9001 1.95002 15.71 2.00003L2.71 6.00003C2.49742 6.06422 2.31226 6.19735 2.1837 6.37841C2.05515 6.55947 1.99052 6.77817 2 7.00003C1.9917 7.22447 2.0592 7.44518 2.19163 7.62659C2.32405 7.80799 2.5137 7.93954 2.73 8.00003L15.73 11.6C15.906 11.6534 16.094 11.6534 16.27 11.6L29.27 8.00003C29.4863 7.93954 29.6759 7.80799 29.8084 7.62659C29.9408 7.44518 30.0083 7.22447 30 7.00003C30.0095 6.77817 29.9448 6.55947 29.8163 6.37841C29.6877 6.19735 29.5026 6.06422 29.29 6.00003Z" fill="#01579B"/>
<path d="M11.22 6C11.0756 5.99999 10.9328 6.03127 10.8016 6.09169C10.6704 6.15211 10.5539 6.24023 10.46 6.35L8.74 8.35C8.58509 8.53114 8.49998 8.76166 8.5 9V16.29C8.50264 18.0317 9.19569 19.7012 10.4272 20.9328C11.6588 22.1643 13.3283 22.8574 15.07 22.86H16V6H11.22Z" fill="#FFE0B2"/>
<path d="M7.22 23C7.03633 22.96 6.84509 22.9725 6.66822 23.0362C6.49134 23.0998 6.336 23.2121 6.22 23.36L2.22 28.36C2.10393 28.5064 2.03117 28.6823 2.00996 28.8679C1.98875 29.0534 2.01994 29.2413 2.1 29.41C2.17816 29.5839 2.30441 29.7319 2.46387 29.8364C2.62333 29.9409 2.80935 29.9977 3 30H16V25L7.22 23Z" fill="#0277BD"/>
<path d="M15.71 2.00002L2.71 6.00002C2.49742 6.06422 2.31226 6.19734 2.1837 6.3784C2.05515 6.55947 1.99052 6.77817 2 7.00002C1.9917 7.22447 2.0592 7.44518 2.19163 7.62658C2.32405 7.80799 2.5137 7.93954 2.73 8.00002L15.73 11.6C15.8194 11.6146 15.9106 11.6146 16 11.6V2.00002C15.9039 1.98469 15.8061 1.98469 15.71 2.00002Z" fill="#0277BD"/>
</svg>

<svg xmlns="http://www.w3.org/2000/svg" width="800" height="800" fill="none" viewBox="0 0 32 32"><path fill="#FFCC80" d="m23.3 8.4-1.48-2A1 1 0 0 0 21 6h-9.8a1 1 0 0 0-.76.35l-1.72 2A1 1 0 0 0 8.5 9v7.29a6.58 6.58 0 0 0 6.57 6.57h1.86a6.58 6.58 0 0 0 6.57-6.57V9a1 1 0 0 0-.2-.6Z"/><path fill="#01579B" d="m29.78 28.38-4-5a1 1 0 0 0-1-.36L16 25l-8.78-2a1 1 0 0 0-1 .36l-4 5a1 1 0 0 0-.12 1.05A1 1 0 0 0 3 30h26a1 1 0 0 0 .78-1.62ZM29.29 6l-13-4a1.14 1.14 0 0 0-.58 0l-13 4A1 1 0 0 0 2 7a1 1 0 0 0 .73 1l13 3.6a.93.93 0 0 0 .54 0l13-3.6A1 1 0 0 0 30 7a1 1 0 0 0-.71-1Z"/><path fill="#FFE0B2" d="M11.22 6a1 1 0 0 0-.76.35l-1.72 2A1 1 0 0 0 8.5 9v7.29a6.58 6.58 0 0 0 6.57 6.57H16V6h-4.78Z"/><path fill="#0277BD" d="M7.22 23a1 1 0 0 0-1 .36l-4 5a1 1 0 0 0-.12 1.05A1 1 0 0 0 3 30h13v-5l-8.78-2ZM15.71 2l-13 4A1 1 0 0 0 2 7a1 1 0 0 0 .73 1l13 3.6c.09.015.18.015.27 0V2a.92.92 0 0 0-.29 0Z"/></svg>
